X:33
T:Hoops Quadrille. WHG.033
R:set tune
S:W.H.Giles MS,Bampton,Oxfordshire,1839p30
O:England
H:donated by Mrs W.R.Kettlewell to VWML,Apr 1927.
A:Bampton, Oxfordshire
N:B music written out in full (no repeat marks).
N:Bar 6 of waltz section is f4 in MS.
Z:PJHeadford – VMP 2009
M:2/4
L:1/16
Q:1/4=120
K:D
d2cd A2F2|G2B2 A4|D2F2 G2B2|E2AG F2D2|
d2cd A2F2|G2B2 A4|D2F2 G2B2|[E2A2][A2c2] d4:|
B2F2 B2G2|B2F2 B4|f2f2 efge|d2c2 B4|
B2F2 B2F2|B2F2 B4|f2f2 efge|d2c2 B4|
d2d2 edcB|A2a2 f4|d2d2 edcB|Adce d4|
d2d2 edcB|A2a2 f4|d2d2 edcB|Adce d4″ Da Capo”|]

